X: 32246
T: Pibddawns Yr Ysgubau
R: hornpipe
M: 4/4
K: Dmajor
|(3ABc|d>AF>A F>Ad>f|a>fd>A g>ec>A|B>dG>d A>dF>d|(3efe (3dcB A>gf>e|
d>AF>A F>Ad>f|a>fd>A g>ec>A|f>dA>d e>cA>c|d>AF>AD2:|
A2|A>ce>c a>ec>A|c>Bc>a B>Gd>B|B>bg>b A>af>a|(3efe (3dcB A>gf>e|
d>AF>A F>Ad>f|a>fd>A g>ec>A|f>dA>f e>cA>c|d>AF>d D2:|

